X:1556
T:Blackbird, The
R:hornpipe
D:De Dannan 1
Z:id:hn-hornpipe-9
M:C|
K:Dmix
DE|F2FA GFD2|de (3fed dcAF|G2GF GFDE|FGAF GBAG|
F2FA GFD2|de (3fed dcAG|AdcA GcAG|F2D2 D2:|
|:de|f2 (3def gfe^c|d^cde fdA2|f2 (3def gfed|fagf g2 (3efg|
afge fde^c|d2de fdAG|AdcA GcAG|F2D2 D2:|


